packages/match-icons/product/svg/elastic-sip-trunking.svg

<svg fill="none" height="32" viewBox="0 0 32 32" width="32" xmlns="http://www.w3.org/2000/svg" xmlns:xlink="http://www.w3.org/1999/xlink"><clipPath id="a"><path d="m0 0h32v32h-32z"/></clipPath><g clip-path="url(#a)" fill="#394762"><path d="m10 26.3901c.5137.2967.9278.739 1.1901 1.2711.2624.532.361 1.1299.2836 1.718-.0774.5882-.3274 1.1402-.7184 1.5862-.3911.4461-.90558.7662-1.47852.9199s-1.17859.1341-1.7404-.0563-1.05456-.5431-1.41596-1.0135-.57523-1.0374-.61446-1.6293.09789-1.1821.39404-1.6961c.19683-.3416.45905-.6411.77168-.8813.31264-.2402.66955-.4164 1.05033-.5185.38077-.1022.77796-.1283 1.16883-.0769.39088.0515.76778.1795 1.10916.3767z"/><path d="m22 5.61001c.514.29615 1.1043.43328 1.6962.39404.5919-.03923 1.1588-.25306 1.6292-.61446.4705-.3614.8232-.85415 1.0136-1.41595.1904-.56181.21-1.16746.0563-1.7404s-.4739-1.08745-.9199-1.478496c-.4461-.391044-.9981-.64107-1.5862-.7184729-.5881-.0774033-1.186.02129-1.7181.2836049-.532.262316-.9744.676477-1.2711 1.190134-.1972.34138-.3252.71829-.3766 1.10916-.0515.39088-.0253.78806.0768 1.16884.1022.38078.2784.73769.5186 1.05032s.5396.57486.8812.77168z"/><path d="m4.92001 26.1401c.20454-.1665.33507-.407.36316-.6692s-.04852-.5249-.21316-.7308c-1.73993-2.1744-2.79188-4.8182-3.02137-7.5935s.37391-5.556 1.73306-7.9866c1.35916-2.43059 3.4123-4.40062 5.89695-5.65822s5.28785-1.74564 8.05135-1.40172c.2652.03315.5328-.04041.7437-.20451.211-.16409.3482-.40528.3813-.67049.0332-.26522-.0404-.532744-.2045-.743722-.1641-.210979-.4053-.34813-.6705-.381282-3.1628-.398584-6.3726.156722-9.21776 1.594704-2.84512 1.43797-5.19583 3.69306-6.75064 6.47605-1.554822 2.78299-2.242865 5.96699-1.97589 9.14369.266975 3.1766 1.47679 6.2011 3.4743 8.6856.0818.1034.18326.1897.29855.2538.11528.0641.2421.1047.37315.1196.13106.0149.26376.0037.39047-.033.12671-.0366.24493-.0979.34783-.1804zm8.07999-14.14h3c.2652 0 .5196.1053.7071.2928.1876.1876.2929.4419.2929.7072 0 .2652-.1053.5195-.2929.7071-.1875.1875-.4419.2929-.7071.2929h-2v2h2c.2652 0 .5196.1053.7071.2928.1876.1876.2929.4419.2929.7072v4c0 .2652-.1053.5195-.2929.7071-.1875.1875-.4419.2929-.7071.2929h-3c-.2652 0-.5196-.1054-.7071-.2929-.1875-.1876-.2929-.4419-.2929-.7071 0-.2653.1054-.5196.2929-.7072.1875-.1875.4419-.2928.7071-.2928h2v-2h-2c-.2652 0-.5196-.1054-.7071-.2929-.1875-.1876-.2929-.4419-.2929-.7071v-4c0-.2653.1054-.5196.2929-.7072.1875-.1875.4419-.2928.7071-.2928zm10 1v8c0 .2652.1054.5195.2929.7071.1875.1875.4419.2929.7071.2929s.5196-.1054.7071-.2929c.1876-.1876.2929-.4419.2929-.7071v-3h3c.2652 0 .5196-.1054.7071-.2929.1876-.1876.2929-.4419.2929-.7071v-4c0-.2653-.1053-.5196-.2929-.7072-.1875-.1875-.4419-.2928-.7071-.2928h-4c-.2652 0-.5196.1053-.7071.2928-.1875.1876-.2929.4419-.2929.7072zm2 3v-2h2v2zm-6 5v-8c0-.2653.1054-.5196.2929-.7072.1875-.1875.4419-.2928.7071-.2928s.5196.1053.7071.2928c.1876.1876.2929.4419.2929.7072v8c0 .2652-.1053.5195-.2929.7071-.1875.1875-.4419.2929-.7071.2929s-.5196-.1054-.7071-.2929c-.1875-.1876-.2929-.4419-.2929-.7071z"/></g></svg>

<svg width="32" height="32" viewBox="0 0 32 32" fill="none" xmlns="http://www.w3.org/2000/svg">
<g clip-path="url(#clip0)">
<path d="M10 26.3901C10.5137 26.6868 10.9278 27.1291 11.1901 27.6612C11.4525 28.1932 11.5511 28.7911 11.4737 29.3792C11.3963 29.9674 11.1463 30.5194 10.7553 30.9654C10.3642 31.4115 9.84972 31.7316 9.27678 31.8853C8.70384 32.039 8.09819 32.0194 7.53638 31.829C6.97457 31.6386 6.48182 31.2859 6.12042 30.8155C5.75902 30.3451 5.54519 29.7781 5.50596 29.1862C5.46673 28.5943 5.60385 28.0041 5.9 27.4901C6.09683 27.1485 6.35905 26.849 6.67168 26.6088C6.98432 26.3686 7.34123 26.1924 7.72201 26.0903C8.10278 25.9881 8.49997 25.962 8.89084 26.0134C9.28172 26.0649 9.65862 26.1929 10 26.3901V26.3901Z" fill="#394762"/>
<path d="M22 5.61001C22.514 5.90616 23.1043 6.04329 23.6962 6.00405C24.2881 5.96482 24.855 5.75099 25.3254 5.38959C25.7959 5.02819 26.1486 4.53544 26.339 3.97364C26.5294 3.41183 26.549 2.80618 26.3953 2.23324C26.2416 1.6603 25.9214 1.14579 25.4754 0.754744C25.0293 0.3637 24.4773 0.113674 23.8892 0.0362711C23.3011 -0.0411322 22.7032 0.0575611 22.1711 0.319876C21.6391 0.582192 21.1967 0.996353 20.9 1.51001C20.7028 1.85139 20.5748 2.2283 20.5234 2.61917C20.4719 3.01005 20.4981 3.40723 20.6002 3.78801C20.7024 4.16879 20.8786 4.5257 21.1188 4.83833C21.359 5.15096 21.6584 5.41319 22 5.61001V5.61001Z" fill="#394762"/>
<path d="M4.92001 26.1401C5.12455 25.9736 5.25508 25.7331 5.28317 25.4709C5.31126 25.2087 5.23465 24.946 5.07001 24.7401C3.33008 22.5657 2.27813 19.9219 2.04864 17.1466C1.81915 14.3713 2.42255 11.5906 3.7817 9.16C5.14086 6.72941 7.194 4.75938 9.67865 3.50178C12.1633 2.24418 14.9665 1.75614 17.73 2.10006C17.9952 2.13321 18.2628 2.05965 18.4737 1.89555C18.6847 1.73146 18.8219 1.49027 18.855 1.22506C18.8882 0.95984 18.8146 0.692316 18.6505 0.481338C18.4864 0.270359 18.2452 0.133208 17.98 0.100056C14.8172 -0.298528 11.6074 0.256778 8.76224 1.69476C5.91712 3.13273 3.56641 5.38782 2.0116 8.17081C0.456778 10.9538 -0.231265 14.1378 0.03571 17.3145C0.302685 20.4911 1.5125 23.5156 3.51001 26.0001C3.59181 26.1035 3.69327 26.1898 3.80856 26.2539C3.92384 26.318 4.05066 26.3586 4.18171 26.3735C4.31277 26.3884 4.44547 26.3772 4.57218 26.3405C4.69889 26.3039 4.81711 26.2426 4.92001 26.1601V26.1401ZM13 12.0001H16C16.2652 12.0001 16.5196 12.1054 16.7071 12.2929C16.8947 12.4805 17 12.7348 17 13.0001C17 13.2653 16.8947 13.5196 16.7071 13.7072C16.5196 13.8947 16.2652 14.0001 16 14.0001H14V16.0001H16C16.2652 16.0001 16.5196 16.1054 16.7071 16.2929C16.8947 16.4805 17 16.7348 17 17.0001V21.0001C17 21.2653 16.8947 21.5196 16.7071 21.7072C16.5196 21.8947 16.2652 22.0001 16 22.0001H13C12.7348 22.0001 12.4804 21.8947 12.2929 21.7072C12.1054 21.5196 12 21.2653 12 21.0001C12 20.7348 12.1054 20.4805 12.2929 20.2929C12.4804 20.1054 12.7348 20.0001 13 20.0001H15V18.0001H13C12.7348 18.0001 12.4804 17.8947 12.2929 17.7072C12.1054 17.5196 12 17.2653 12 17.0001V13.0001C12 12.7348 12.1054 12.4805 12.2929 12.2929C12.4804 12.1054 12.7348 12.0001 13 12.0001V12.0001ZM23 13.0001V21.0001C23 21.2653 23.1054 21.5196 23.2929 21.7072C23.4804 21.8947 23.7348 22.0001 24 22.0001C24.2652 22.0001 24.5196 21.8947 24.7071 21.7072C24.8947 21.5196 25 21.2653 25 21.0001V18.0001H28C28.2652 18.0001 28.5196 17.8947 28.7071 17.7072C28.8947 17.5196 29 17.2653 29 17.0001V13.0001C29 12.7348 28.8947 12.4805 28.7071 12.2929C28.5196 12.1054 28.2652 12.0001 28 12.0001H24C23.7348 12.0001 23.4804 12.1054 23.2929 12.2929C23.1054 12.4805 23 12.7348 23 13.0001ZM25 16.0001V14.0001H27V16.0001H25ZM19 21.0001V13.0001C19 12.7348 19.1054 12.4805 19.2929 12.2929C19.4804 12.1054 19.7348 12.0001 20 12.0001C20.2652 12.0001 20.5196 12.1054 20.7071 12.2929C20.8947 12.4805 21 12.7348 21 13.0001V21.0001C21 21.2653 20.8947 21.5196 20.7071 21.7072C20.5196 21.8947 20.2652 22.0001 20 22.0001C19.7348 22.0001 19.4804 21.8947 19.2929 21.7072C19.1054 21.5196 19 21.2653 19 21.0001Z" fill="#394762"/>
</g>
<defs>
<clipPath id="clip0">
<rect width="32" height="32" fill="white"/>
</clipPath>
</defs>
</svg>
